res/media/img/icon/sn/Facebook.svg

<svg xmlns="http://www.w3.org/2000/svg" xmlns:xlink="http://www.w3.org/1999/xlink" width="512" zoomAndPan="magnify" viewBox="0 0 384 383.999986" height="512" preserveAspectRatio="xMidYMid meet" version="1.0"><path fill="#ffffff" d="M 384 192 C 384 85.960938 298.039062 0 192 0 C 85.960938 0 0 85.960938 0 192 C 0 287.832031 70.210938 367.265625 162 381.667969 L 162 247.5 L 113.25 247.5 L 113.25 192 L 162 192 L 162 149.699219 C 162 101.578125 190.664062 75 234.519531 75 C 255.527344 75 277.5 78.75 277.5 78.75 L 277.5 126 L 253.289062 126 C 229.4375 126 222 140.800781 222 155.984375 L 222 192 L 275.25 192 L 266.738281 247.5 L 222 247.5 L 222 381.667969 C 313.789062 367.265625 384 287.832031 384 192 " fill-opacity="1" fill-rule="nonzero"/><path fill="#000000" d="M 266.738281 247.5 L 275.25 192 L 222 192 L 222 155.984375 C 222 140.800781 229.4375 126 253.289062 126 L 277.5 126 L 277.5 78.75 C 277.5 78.75 255.527344 75 234.519531 75 C 190.664062 75 162 101.578125 162 149.699219 L 162 192 L 113.25 192 L 113.25 247.5 L 162 247.5 L 162 381.667969 C 171.773438 383.203125 181.792969 384 192 384 C 202.207031 384 212.226562 383.203125 222 381.667969 L 222 247.5 L 266.738281 247.5 " fill-opacity="0" fill-rule="nonzero"/></svg>

<svg xmlns="http://www.w3.org/2000/svg" version="1.0" viewBox="0 0 384 384"><path fill="#fff" d="M384 192C384 85.96 298.04 0 192 0S0 85.96 0 192c0 95.832 70.21 175.266 162 189.668V247.5h-48.75V192H162v-42.3c0-48.122 28.664-74.7 72.52-74.7 21.007 0 42.98 3.75 42.98 3.75V126h-24.21c-23.852 0-31.29 14.8-31.29 29.984V192h53.25l-8.512 55.5H222v134.168C313.79 367.266 384 287.832 384 192"/><path fill-opacity="0" d="M266.738 247.5l8.512-55.5H222v-36.016c0-15.183 7.438-29.984 31.29-29.984h24.21V78.75S255.527 75 234.52 75C190.664 75 162 101.578 162 149.7V192h-48.75v55.5H162v134.168A193.239 193.239 0 00192 384c10.207 0 20.227-.797 30-2.332V247.5h44.738"/></svg>
